X: 147
T:I Buried My Wife and Danced on Top of Her
M:6/8
L:1/8
R:jig
K:D
"D"DED F2G|AdB "C"=cAF|"G"~G3 BAG|"A"FAA GEA|
"D"DED F2G|AdB "C"=cAF|"G"~G3 BAG|"A"AFA "D"D3:|
|:"D"d2e fed|faf "G"gfe|"D"d2e fed|"C"d=cA dcA|
"D"d2e fed|faf "G"gfe|"D"d=cA "G"BAG|"A"AFA "D"D3:|
